svg/fluentui-system-icons/ic_fluent_desktop_arrow_down_20_regular.svg

<svg width="20" height="20" viewBox="0 0 20 20" fill="none" xmlns="http://www.w3.org/2000/svg">
<path d="M19 5.5C19 7.98528 16.9853 10 14.5 10C12.0147 10 10 7.98528 10 5.5C10 3.01472 12.0147 1 14.5 1C16.9853 1 19 3.01472 19 5.5ZM14.146 7.85316L14.1486 7.85567C14.196 7.90256 14.2505 7.93802 14.3086 7.96206C14.3667 7.98615 14.4303 7.9996 14.497 7.99999L14.5 8L14.503 7.99999C14.5697 7.9996 14.6333 7.98615 14.6914 7.96206C14.7504 7.93766 14.8056 7.90149 14.8536 7.85355L16.8536 5.85355C17.0488 5.65829 17.0488 5.34171 16.8536 5.14645C16.6583 4.95118 16.3417 4.95118 16.1464 5.14645L15 6.29289V3.5C15 3.22386 14.7761 3 14.5 3C14.2239 3 14 3.22386 14 3.5V6.29289L12.8536 5.14645C12.6583 4.95118 12.3417 4.95118 12.1464 5.14645C11.9512 5.34171 11.9512 5.65829 12.1464 5.85355L14.146 7.85316ZM17 13V10.4003C17.3578 10.2174 17.6929 9.99647 18 9.74284V13C18 14.1046 17.1046 15 16 15H13V17H14.5C14.7761 17 15 17.2239 15 17.5C15 17.7761 14.7761 18 14.5 18H5.5C5.22386 18 5 17.7761 5 17.5C5 17.2239 5.22386 17 5.5 17H7V15H4C2.89543 15 2 14.1046 2 13V4C2 2.89543 2.89543 2 4 2H10.2572C10.0035 2.30711 9.78261 2.64222 9.59971 3H4C3.44772 3 3 3.44772 3 4V13C3 13.5523 3.44772 14 4 14H16C16.5523 14 17 13.5523 17 13ZM12 15H8V17H12V15Z" fill="#212121"/>
</svg>

<svg xmlns="http://www.w3.org/2000/svg" width="20" height="20"><path d="M19 5.5a4.5 4.5 0 1 1-9 0 4.5 4.5 0 0 1 9 0Zm-4.854 2.353.003.003a.498.498 0 0 0 .348.144h.006a.498.498 0 0 0 .35-.146l2-2a.5.5 0 0 0-.707-.708L15 6.293V3.5a.5.5 0 0 0-1 0v2.793l-1.146-1.147a.5.5 0 0 0-.708.708l2 2ZM17 13v-2.6a5.507 5.507 0 0 0 1-.657V13a2 2 0 0 1-2 2h-3v2h1.5a.5.5 0 0 1 0 1h-9a.5.5 0 0 1 0-1H7v-2H4a2 2 0 0 1-2-2V4a2 2 0 0 1 2-2h6.257A5.504 5.504 0 0 0 9.6 3H4a1 1 0 0 0-1 1v9a1 1 0 0 0 1 1h12a1 1 0 0 0 1-1Zm-5 2H8v2h4v-2Z"/></svg>
